bundles/org.openhab.ui.habpanel/web/assets/icons/smarthome-set/cold.svg

<?xml version="1.0" encoding="UTF-8" standalone="no"?>
<svg width="32px" height="32px" viewBox="0 0 32 32" version="1.1" xmlns="http://www.w3.org/2000/svg" xmlns:xlink="http://www.w3.org/1999/xlink" xmlns:sketch="http://www.bohemiancoding.com/sketch/ns">
    <!-- Generator: Sketch 3.3.2 (12043) - http://www.bohemiancoding.com/sketch -->
    <title>cold</title>
    <desc>Created with Sketch.</desc>
    <defs></defs>
    <g id="flatten" stroke="none" stroke-width="1" fill="none" fill-rule="evenodd" sketch:type="MSPage">
        <g id="z-copy" sketch:type="MSArtboardGroup" transform="translate(-100.000000, -36.000000)" fill="#000000">
            <g id="key" sketch:type="MSLayerGroup" transform="translate(125.000000, 0.000000)">
                <path d="M18.9773514,36.3137397 L17.3543418,34.6984571 L17.5196346,25.232346 C17.487146,22.677132 15.7468783,19.6425185 13.5585621,18.3276711 L10.9517006,16.7613412 C10.8090258,16.6756152 10.6484783,16.3609187 10.6634037,16.1947217 L11.1913994,10.3153824 C11.2199767,9.99716789 11.4715698,9.45695904 11.6921878,9.23663279 L14.5336569,6.39892127 C14.7297024,6.20313499 15.2404267,5.99168742 15.5220514,5.99168742 L27.6752911,5.99168742 C27.96375,5.99168742 28.4626704,6.19817183 28.6636858,6.39892135 L31.5051554,9.23663303 C31.6784051,9.40965367 31.8495774,9.88322502 31.8268327,10.1364919 L31.2988364,16.015831 C31.2753973,16.2768304 31.0248643,16.7155472 30.8164582,16.8639939 L29.0742515,18.1049594 C26.99844,19.5835501 25.4060023,22.7165482 25.4345076,25.2577624 L25.8430019,34.6984571 L24.219992,36.3137399 L24.219992,36.3137399 L24.219992,24.0767995 L23.219992,24.0767995 L23.219992,36.8096784 L19.9773514,36.8096784 L19.9773514,24.0767995 L18.9773514,24.0767995 L18.9773514,36.3137397 L18.9773514,36.3137397 Z M15.5220514,3.99168742 C14.7103361,3.99168742 13.6913391,4.41356755 13.1203793,4.98377232 L10.2789102,7.82148385 C9.72539998,8.37426215 9.26982732,9.35244631 9.1994159,10.1364918 L8.67142024,16.015831 C8.58783602,16.9465584 9.1231952,17.9959405 9.92163923,18.4756847 L12.5285007,20.0420145 C14.1224199,20.9997191 15.4961132,23.3951141 15.5197963,25.2577733 L15.6490051,35.4199627 L15.6541945,35.8281062 L15.9435068,36.1160411 L18.0648275,38.2272624 L18.3574285,38.5184704 L18.770245,38.5184704 L24.4270987,38.5184704 L24.8399152,38.5184704 L25.1325162,38.2272624 L27.2538369,36.1160411 L27.5530922,35.8182106 L27.5483565,35.3960326 L27.4343818,25.2353294 C27.41322,23.3487741 28.6921133,20.8326501 30.2345799,19.7339585 L31.9767866,18.492993 C32.6619169,18.0049779 33.2152702,17.0359824 33.2908199,16.1947218 L33.8188161,10.3153827 C33.8945329,9.47226211 33.5121885,8.41445444 32.9184328,7.821484 L30.0769633,4.98377232 C29.5009673,4.40853815 28.4937468,3.99168742 27.6752911,3.99168742 L15.5220514,3.99168742 L15.5220514,3.99168742 Z M17.2494293,11.4346639 C17.2494293,10.3300944 18.1359841,9.43466387 19.2553483,9.43466387 L22.2435102,9.43466387 C23.3513487,9.43466387 24.2494293,10.3223935 24.2494293,11.4346639 C24.2494293,12.5392334 23.3628745,13.4346639 22.2435102,13.4346639 L19.2553483,13.4346639 C18.1475098,13.4346639 17.2494293,12.5469342 17.2494293,11.4346639 L17.2494293,11.4346639 Z M18.2494293,11.4346639 C18.2494293,11.9907282 18.6958662,12.4346639 19.2553483,12.4346639 L22.2435102,12.4346639 C22.8063802,12.4346639 23.2494293,11.9911619 23.2494293,11.4346639 C23.2494293,10.8785995 22.8029924,10.4346639 22.2435102,10.4346639 L19.2553483,10.4346639 C18.6924784,10.4346639 18.2494293,10.8781658 18.2494293,11.4346639 L18.2494293,11.4346639 Z" sketch:type="MSShapeGroup" transform="translate(21.245594, 21.255079) rotate(-315.000000) translate(-21.245594, -21.255079) "></path>
            </g>
            <g id="cold" sketch:type="MSLayerGroup" transform="translate(100.000000, 36.000000)">
                <path d="M16.9999998,14.2679495 L16.9999998,7.5 L20.2427767,4.24475131 C20.6359924,3.8515357 20.6331649,3.22119816 20.2426406,2.83067387 C19.8493937,2.43742691 19.2190123,2.44008863 18.8285632,2.83053774 L17,4.65910092 L17,0.992786407 C17,0.452362061 16.5522847,0 16,0 C15.4438648,0 15,0.444485615 15,0.992786407 L15,4.6946347 L13.1714368,2.86607152 C12.7809877,2.47562241 12.1506063,2.47296069 11.7573594,2.86620764 C11.3668351,3.25673193 11.3640076,3.88706947 11.7572233,4.28028508 L14.9999998,7.53553378 L14.9999998,14.2679493 L9.13878399,10.8839747 L7.94104437,6.44802321 C7.79711747,5.9108807 7.24981543,5.59816057 6.71634933,5.74110238 C6.179164,5.88504076 5.86627843,6.4322979 6.00919272,6.9656613 L6.6784933,9.46352506 L3.50337179,7.6303678 C3.03535058,7.36015563 2.41973591,7.52170738 2.14359354,8 C1.86552595,8.48162719 2.02852937,9.08826821 2.50337179,9.36241861 L5.70926645,11.2133428 L3.21140269,11.8826433 C2.67803929,12.0255576 2.36054349,12.570153 2.50448186,13.1073384 C2.64742367,13.6408045 3.19189827,13.9584219 3.72904078,13.814495 L8.16955714,12.6337924 L14,16.0000002 L8.13878415,19.3839747 L3.69826763,18.2032719 C3.16112512,18.059345 2.61665052,18.3769624 2.47370871,18.9104285 C2.32977033,19.4476138 2.64726614,19.9922093 3.18062954,20.1351236 L5.6784933,20.8044241 L2.50337179,22.6375814 C2.03535058,22.9077936 1.86745116,23.5217074 2.14359354,24 C2.42166113,24.4816272 3.02852937,24.6437826 3.50337179,24.3696322 L6.70926645,22.5187081 L6.03996587,25.0165718 C5.89705158,25.5499352 6.20993715,26.0971924 6.74712248,26.2411307 C7.28058858,26.3840725 7.82789062,26.0713524 7.97181753,25.5342099 L9.1695573,21.0982587 L14.9999998,17.7320511 L14.9999998,24.5355338 L11.7572233,27.8536895 C11.3640076,28.2469051 11.3668351,28.8772427 11.7573594,29.267767 C12.1506063,29.6610139 12.7809877,29.6583522 13.1714368,29.2679031 L15,27.4393399 L15,31.0072136 C15,31.5476379 15.4477153,32 16,32 C16.5561352,32 17,31.5555144 17,31.0072136 L17,27.4038061 L18.8285632,29.2323693 C19.2190123,29.6228184 19.8493937,29.6254801 20.2426406,29.2322332 C20.6331649,28.8417089 20.6359924,28.2113713 20.2427767,27.8181557 L16.9999998,24.5 L16.9999998,17.7320509 L22.891989,21.1337924 L24.1442079,25.6011972 C24.2881348,26.1383397 24.8354368,26.4510598 25.3689029,26.308118 C25.9060883,26.1641797 26.2189738,25.6169225 26.0760595,25.0835591 L25.406759,22.5856954 L28.4966282,24.3696322 C28.9646494,24.6398444 29.5802641,24.4782926 29.8564065,24 C30.134474,23.5183728 29.9714706,22.9117318 29.4966282,22.6375814 L26.3759858,20.8358777 L28.8738496,20.1665771 C29.407213,20.0236628 29.7247088,19.4790674 29.5807704,18.941882 C29.4378286,18.4084159 28.893354,18.0907985 28.3562115,18.2347254 L23.8612159,19.3839747 L18,16.0000002 L23.8919892,12.5982587 L28.3869846,13.7475077 C28.9241271,13.8914346 29.4686017,13.5738172 29.6115435,13.0403511 C29.7554819,12.5031657 29.4379861,11.9585703 28.9046227,11.815656 L26.406759,11.1463555 L29.4966282,9.36241861 C29.9646494,9.09220643 30.1325488,8.47829262 29.8564065,8 C29.5783389,7.51837281 28.9714706,7.3562174 28.4966282,7.6303678 L25.3759858,9.43207154 L26.0452864,6.93420778 C26.1882007,6.40084437 25.8753151,5.85358723 25.3381298,5.70964886 C24.8046637,5.56670705 24.2573616,5.87942718 24.1134347,6.41656969 L22.861216,10.8839747 L16.9999998,14.2679495 L16.9999998,14.2679495 Z" sketch:type="MSShapeGroup"></path>
            </g>
        </g>
    </g>
</svg>

<svg width="32" height="32" xmlns="http://www.w3.org/2000/svg"><g fill="#000" fill-rule="evenodd"><path d="m33.994-5.7-.006-2.29 6.81-6.577c1.784-1.83 2.7-5.206 2.082-7.683l-.736-2.951c-.04-.162.069-.498.197-.605l4.53-3.784c.246-.205.806-.409 1.118-.409l4.015.003c.277 0 .788.212.987.411l8.594 8.594c.204.204.41.702.41.987L62-15.99c0 .245-.214.701-.41.864l-4.53 3.784c-.201.168-.688.301-.94.259l-2.11-.355c-2.514-.422-5.855.667-7.632 2.484l-6.386 6.965-2.29-.006 8.653-8.652-.708-.708-9.003 9.004-2.293-2.293 9.004-9.003-.708-.708L33.994-5.7ZM54.405-31c-.573-.573-1.592-.995-2.4-.996l-4.015-.003c-.782 0-1.796.37-2.4.874l-4.531 3.784c-.717.6-1.08 1.72-.855 2.624l.735 2.95c.45 1.805-.272 4.47-1.572 5.804l-7.095 7.277-.285.292.001.408.007 2.993.001.413.292.292 4 4 .292.292h.413l2.993.008h.422l.295-.301 7.104-7.265c1.32-1.35 4.003-2.224 5.87-1.91l2.11.354c.83.14 1.906-.154 2.554-.696l4.53-3.784c.65-.542 1.128-1.56 1.128-2.4l-.003-4.016c0-.814-.418-1.82-.997-2.4l-8.594-8.593Zm-4.041 6.485a1.996 1.996 0 0 1 2.833.004l2.113 2.113c.783.784.79 2.047.004 2.833a1.996 1.996 0 0 1-2.833-.004l-2.113-2.113a1.998 1.998 0 0 1-.004-2.833Zm.707.707a.998.998 0 0 0 .004 1.419l2.113 2.113a.996.996 0 0 0 1.419.004.998.998 0 0 0-.005-1.418l-2.113-2.113a.996.996 0 0 0-1.418-.005ZM17 14.268V7.5l3.243-3.255a.997.997 0 0 0 0-1.414.997.997 0 0 0-1.414 0L17 4.659V.993C17 .453 16.552 0 16 0c-.556 0-1 .444-1 .993v3.702l-1.829-1.829a.997.997 0 0 0-1.414 0 .997.997 0 0 0 0 1.414L15 7.536v6.732l-5.861-3.384L7.94 6.448a.997.997 0 0 0-1.225-.707.997.997 0 0 0-.707 1.225l.67 2.498L3.502 7.63a1.002 1.002 0 0 0-1.36.37.994.994 0 0 0 .36 1.362l3.206 1.851-2.498.67a.997.997 0 0 0-.707 1.224.997.997 0 0 0 1.225.707l4.44-1.18L14 16l-5.861 3.384-4.44-1.18a.997.997 0 0 0-1.225.706.997.997 0 0 0 .707 1.225l2.497.67-3.175 1.833c-.468.27-.636.884-.36 1.362a.994.994 0 0 0 1.36.37l3.206-1.851-.669 2.498a.997.997 0 0 0 .707 1.224.997.997 0 0 0 1.225-.707l1.198-4.436L15 17.732v6.804l-3.243 3.318a.997.997 0 0 0 0 1.414.997.997 0 0 0 1.414 0L15 27.439v3.568c0 .54.448.993 1 .993.556 0 1-.444 1-.993v-3.603l1.829 1.828a.997.997 0 0 0 1.414 0 .997.997 0 0 0 0-1.414L17 24.5v-6.768l5.892 3.402 1.252 4.467a.997.997 0 0 0 1.225.707.997.997 0 0 0 .707-1.224l-.67-2.498 3.09 1.784c.469.27 1.084.108 1.36-.37a.994.994 0 0 0-.36-1.362l-3.12-1.802 2.498-.67a.997.997 0 0 0 .707-1.224.997.997 0 0 0-1.225-.707l-4.495 1.149L18 16l5.892-3.402 4.495 1.15a.997.997 0 0 0 1.225-.708.997.997 0 0 0-.707-1.224l-2.498-.67 3.09-1.784c.468-.27.636-.884.36-1.362a.994.994 0 0 0-1.36-.37l-3.121 1.802.67-2.498a.997.997 0 0 0-.708-1.224.997.997 0 0 0-1.225.707l-1.252 4.467L17 14.268Z"/></g></svg>
